X:1
T:[ID 3-49]
T:[ID 3-49]
T:Bezeichnung standardisiert: Wachel; Wachell 30.
T:Urheber unbekannt Datum in der hier transkribierten schriftlichen Quelle: 1767
C:Urheber unbekannt
C:Datum in der hier transkribierten schriftlichen Quelle: 1767
%%score 1 2
L:1/8
M:3/4
K:D
V:1 treble nm="Primo"
V:2 treble nm="Secondo"
V:1
 d>d d z z2 | d>d d z z2 |"^O)" f>f f z z2 |"^O)" f>f f z z2 | a2 ag ag/f/ | g2 gf gf/e/ | %6
 f2 fe fe/d/ | e>e e z z2 | f>f f z z2 | d>d d z z2 :: e2 ed e2 | fefg ag/f/ | e2 edeg | %13
 f>f f z z2 | a2 ag ag/f/ | g2 gf gf/e/ | f2 fe fe/d/ | e>e e z z2 | f>f f z z2 | d>d d z z2 :| %20
V:2
 !fermata!z2 z AFD | z2 z AFD | z2 z AFD | z2 z AFD | f2 fe fe/d/ | e2 ed ed/c/ | d2 dA dA/F/ | %7
 A>A A z z2 | d>d d z z2 | f>f f z z2 :: G2 GF G2 | dA de fe/d/ | G2 GF G2 | d>d d z z2 | %14
 f2 fe fe/d/ | e2 ed ed/c/ | d2 dA dA/F/ | A>A A z z2 | d>d d z z2 | f>f f z z2 :| %20

